src/scalable/apps/gerbview.svg

<svg width="64" height="64" viewBox="0 0 64 64" fill="none" xmlns="http://www.w3.org/2000/svg">
<circle cx="32" cy="32" r="27" fill="#545454"/>
<path d="M5.5625 33.6875C5.5625 35.5515 7.07354 37.0625 8.9375 37.0625C10.1867 37.0625 11.2774 36.3838 11.861 35.375H15.125V36.5H24.125V35.375H25.8125L29.75 39.3125V58.9076C30.4919 58.9688 31.2423 59 32 59C32.3769 59 32.7519 58.9923 33.125 58.977V38.1875L26.9375 32H24.125V30.875H15.125V32H11.861C11.2774 30.9912 10.1867 30.3125 8.9375 30.3125C7.07354 30.3125 5.5625 31.8235 5.5625 33.6875Z" fill="#B9B9B9"/>
<path d="M15.125 19.625V20.75H7.44819C6.94883 21.838 6.51966 22.965 6.16648 24.125H15.125V25.25H24.125V19.625H15.125Z" fill="#B9B9B9"/>
<path d="M24.125 14H15.125V10.9219C16.999 9.41961 19.0777 8.16209 21.3125 7.19779V8.375H24.125V14Z" fill="#B9B9B9"/>
<path d="M11.1875 41L10.0625 42.125H6.96262C10.1441 49.9846 16.919 56.0051 25.25 58.1494V43.8125L23.5625 42.125H15.6875L14.5625 41H11.1875Z" fill="#B9B9B9"/>
<path d="M35.9375 35.375L29.75 29.1875V20.3711C28.4197 19.7391 27.5 18.3832 27.5 16.8125C27.5 15.2418 28.4197 13.8859 29.75 13.2539V5.09242C30.4919 5.03121 31.2423 5 32 5C32.3769 5 32.7519 5.00772 33.125 5.02301V13.2539C34.4553 13.8859 35.375 15.2418 35.375 16.8125C35.375 18.3832 34.4553 19.7391 33.125 20.3711V28.0625L37.0625 32H37.625V30.875H46.625V32H59C59 33.143 58.929 34.2694 58.7911 35.375H46.625V36.5H37.625V35.375H35.9375Z" fill="#B9B9B9"/>
<path d="M37.625 14V8.375H45.0815C45.607 8.66659 46.1218 8.97521 46.625 9.30011C46.7272 9.36607 46.8289 9.4327 46.9301 9.5C48.4164 10.4882 49.7992 11.6198 51.0587 12.875H46.625V14H37.625Z" fill="#B9B9B9"/>
<path d="M46.625 19.625V20.75H56.5518C57.0512 21.838 57.4803 22.965 57.8335 24.125H46.625V25.25H37.625V19.625H46.625Z" fill="#B9B9B9"/>
<path d="M39.3125 39.875L37.625 41.5625V58.4132C47.6445 56.2899 55.6116 48.6098 58.1494 38.75H48.875L47.75 39.875H39.3125Z" fill="#B9B9B9"/>
</svg>

<svg xmlns="http://www.w3.org/2000/svg" width="64" height="64" fill="none"><circle cx="32" cy="32" r="27" fill="#545454"/><path fill="#B9B9B9" d="M5.563 33.688a3.375 3.375 0 0 0 6.298 1.687h3.264V36.5h9v-1.125h1.688l3.937 3.938v19.595a27.364 27.364 0 0 0 3.375.069v-20.79L26.937 32h-2.812v-1.125h-9V32h-3.264a3.375 3.375 0 0 0-6.299 1.688ZM15.125 19.625v1.125H7.448a26.812 26.812 0 0 0-1.282 3.375h8.959v1.125h9v-5.625h-9ZM24.125 14h-9v-3.078a26.99 26.99 0 0 1 6.188-3.724v1.177h2.812V14Z"/><path fill="#B9B9B9" d="m11.188 41-1.126 1.125h-3.1c3.182 7.86 9.957 13.88 18.288 16.024V43.812l-1.688-1.687h-7.875L14.563 41h-3.376ZM35.938 35.375l-6.188-6.188v-8.816a3.938 3.938 0 0 1 0-7.117V5.092a27.36 27.36 0 0 1 3.375-.069v8.23a3.938 3.938 0 0 1 0 7.118v7.692L37.063 32h.562v-1.125h9V32H59c0 1.143-.071 2.27-.209 3.375H46.625V36.5h-9v-1.125h-1.688Z"/><path fill="#B9B9B9" d="M37.625 14V8.375h7.456a26.969 26.969 0 0 1 1.85 1.125c1.485.988 2.868 2.12 4.128 3.375h-4.434V14h-9ZM46.625 19.625v1.125h9.927c.5 1.088.928 2.215 1.282 3.375H46.624v1.125h-9v-5.625h9ZM39.313 39.875l-1.688 1.688v16.85c10.02-2.123 17.987-9.803 20.524-19.663h-9.274l-1.125 1.125h-8.438Z"/></svg>
